packages/foundations/assets/icons/functional/images/social/face_disappointed_24.svg

<svg width="24" height="24" viewBox="0 0 24 24" fill="none" xmlns="http://www.w3.org/2000/svg">
<g clip-path="url(#clip0_187_358)">
<path fill-rule="evenodd" clip-rule="evenodd" d="M19 12C19 15.86 15.86 19 12 19C8.14 19 5 15.86 5 12C5 8.14 8.14 5 12 5C15.86 5 19 8.14 19 12ZM3 12C3 16.971 7.029 21 12 21C16.971 21 21 16.971 21 12C21 7.029 16.971 3 12 3C7.029 3 3 7.029 3 12ZM17.071 9.53165C16.861 9.02165 16.277 8.77965 15.764 8.99065C15.594 9.06065 15.407 9.06065 15.238 8.99065C15.069 8.92065 14.936 8.78765 14.866 8.61765C14.655 8.10765 14.069 7.86465 13.56 8.07665C13.05 8.28765 12.807 8.87265 13.018 9.38365C13.292 10.0467 13.809 10.5637 14.472 10.8387C14.804 10.9757 15.152 11.0447 15.501 11.0447C15.85 11.0447 16.197 10.9767 16.529 10.8387C17.04 10.6277 17.282 10.0427 17.071 9.53165ZM9.527 10.8387C10.19 10.5637 10.707 10.0467 10.981 9.38365C11.192 8.87265 10.95 8.28765 10.439 8.07665C9.929 7.86465 9.343 8.10765 9.133 8.61765C9.063 8.78765 8.93 8.92065 8.761 8.99065C8.592 9.06165 8.405 9.06165 8.235 8.99065C7.723 8.77965 7.139 9.02165 6.928 9.53165C6.717 10.0427 6.959 10.6277 7.469 10.8387C7.801 10.9767 8.149 11.0447 8.497 11.0447C8.845 11.0447 9.195 10.9757 9.526 10.8387H9.527ZM14.944 16.428C14.913 16.415 13.65 15.924 12.001 15.924C10.339 15.924 9.07 16.423 9.057 16.428C8.724 16.56 8.345 16.506 8.065 16.284C7.784 16.061 7.642 15.707 7.694 15.353C7.891 14.02 9.046 11.499 12.001 11.499C14.956 11.499 16.11 14.02 16.308 15.353C16.361 15.708 16.219 16.064 15.936 16.286C15.757 16.427 15.539 16.5 15.318 16.5C15.192 16.5 15.065 16.477 14.944 16.428ZM12.001 13.924C12.53 13.924 13.025 13.965 13.471 14.026C13.128 13.723 12.654 13.501 12.001 13.501C11.348 13.501 10.874 13.724 10.531 14.026C10.977 13.965 11.472 13.924 12.001 13.924Z" fill="#1A1C1F"/>
</g>
<defs>
<clipPath id="clip0_187_358">
<rect width="24" height="24" fill="white"/>
</clipPath>
</defs>
</svg>

<svg xmlns="http://www.w3.org/2000/svg" width="24" height="24" fill="none"><g clip-path="url(#a)"><path fill="#1A1C1F" fill-rule="evenodd" d="M19 12c0 3.86-3.14 7-7 7s-7-3.14-7-7 3.14-7 7-7 7 3.14 7 7M3 12a9 9 0 0 0 9 9 9 9 0 0 0 9-9 9 9 0 0 0-9-9 9 9 0 0 0-9 9m14.071-2.468a1 1 0 0 0-1.307-.541.685.685 0 0 1-.898-.373 1 1 0 1 0-1.848.766 2.692 2.692 0 0 0 2.483 1.661c.349 0 .696-.068 1.028-.206a1 1 0 0 0 .542-1.307m-7.544 1.307a2.67 2.67 0 0 0 1.454-1.455 1 1 0 0 0-1.848-.766.684.684 0 0 1-.898.373 1 1 0 1 0-.766 1.848 2.67 2.67 0 0 0 2.057 0zm5.417 5.589c-.031-.013-1.294-.504-2.943-.504-1.662 0-2.931.499-2.944.504a1.003 1.003 0 0 1-1.363-1.075c.197-1.333 1.352-3.854 4.307-3.854s4.109 2.521 4.307 3.854a.998.998 0 0 1-.99 1.147 1 1 0 0 1-.374-.072m-2.943-2.504c.529 0 1.024.041 1.47.102-.343-.303-.817-.525-1.47-.525s-1.127.223-1.47.525c.446-.061.941-.102 1.47-.102" clip-rule="evenodd"/></g><defs><clipPath id="a"><path fill="#fff" d="M0 0h24v24H0z"/></clipPath></defs></svg>
